packages/design-assets/icons/16px/Diamond.svg

<?xml version="1.0" encoding="UTF-8"?>
<svg width="16px" height="16px" viewBox="0 0 16 16" version="1.1" xmlns="http://www.w3.org/2000/svg" xmlns:xlink="http://www.w3.org/1999/xlink">
    <!-- Generator: Sketch 54.1 (76490) - https://sketchapp.com -->
    <title>Icons/16px/Diamond</title>
    <desc>Created with Sketch.</desc>
    <g id="Icons/16px/Diamond" stroke="none" stroke-width="1" fill="none" fill-rule="evenodd">
        <path d="M6.73240812,2 L3.64987309,2 L2.31653976,5 L4.73240812,5 L6.73240812,2 Z M7.93425855,2 L5.93425855,5 L10.0657415,5 L8.06574145,2 L7.93425855,2 Z M9.26759188,2 L11.2675919,5 L13.6834602,5 L12.3501269,2 L9.26759188,2 Z M6.51774694,11.302596 L4.64624246,6 L2.61057092,6 L6.51774694,11.302596 Z M9.48225306,11.302596 L13.3894291,6 L11.3537575,6 L9.48225306,11.302596 Z M10.2933013,6 L5.70669872,6 L8,12.497687 L10.2933013,6 L10.2933013,6 Z M2.99999339,-1.20792265e-13 L12.9999934,-1.20792265e-13 C13.3951887,-1.13353771e-13 13.7533102,0.232733521 13.9138115,0.593861534 L15.9138115,5.09386153 C16.0597896,5.42231207 16.0182689,5.80383848 15.8050558,6.09319904 L8.80505584,15.593199 C8.40539173,16.1356003 7.59460827,16.1356003 7.19494416,15.593199 L0.194944163,6.09319904 C-0.0182688818,5.80383848 -0.0597895649,5.42231207 0.0861884514,5.09386153 L2.08618845,0.593861534 C2.24668979,0.232733521 2.60481128,-1.2101431e-13 2.99999339,-1.20792265e-13 Z" id="i-16-diamond" fill="#818F99"></path>
    </g>
</svg>

<svg width="16" height="16" xmlns="http://www.w3.org/2000/svg"><path d="M6.732 2H3.65L2.317 5h2.415l2-3zm1.202 0l-2 3h4.132l-2-3h-.132zm1.334 0l2 3h2.415L12.35 2H9.268zm-2.75 9.303L4.646 6H2.611l3.907 5.303zm2.964 0L13.39 6h-2.035l-1.872 5.303zM10.293 6H5.707L8 12.498 10.293 6zM3 0h10a1 1 0 0 1 .914.594l2 4.5a1 1 0 0 1-.109 1l-7 9.5a1 1 0 0 1-1.61 0l-7-9.5a1 1 0 0 1-.109-1l2-4.5A1 1 0 0 1 3 0z" fill="#818F99" fill-rule="evenodd"/></svg>
